!! 00000] TT[WS
!!!OTL: Danshui
!!!ARE: Asia, China,ÿShanxi Dingxiang
!! Ethnic Group: Han
!! WI, 64
!!!SCT: J0074
!!!YEM: Copyright 1995, estate of Helmut Schaffrath.
**kern
*ICvox
*Ivox
*M2/4
*k[f#]
*G:
{8ee
8dd
4b
=1
8ee
8dd
4b
=2
8ee
8dd
8ee
8gg
=3
4dd
8dd
8b}
=4
{8dd
8dd
8b
8dd
=5
8ee
8dd
8b
8a
=6
4.g
8a
=7
4g
4g}
=8
{4b
8b
8b
=9
8b
8g
8ee
8ee
=10
8b
8b
8e
8dd
=11
4g
8g
8a}
=12
{4.dd
8b
=13
8b
8f#
8a
8f#
=14
4.e
8f#
=15
2e}
==
!!!AGN: Xiaodiao. Laodong, Jiawu
!!!ONB: ESAC (Essen Associative Code) Database: CHINA
!!!AMT: simple duple
!!!AIN: vox
!!!EED: Helmut Schaffrath
!!!EEV: 1.0
*-
